app/assets/images/icons/active/activity.svg

<?xml version="1.0" encoding="UTF-8" standalone="no"?>
<svg width="32px" height="232px" viewBox="0 0 32 232" version="1.1" xmlns="http://www.w3.org/2000/svg" xmlns:xlink="http://www.w3.org/1999/xlink" xmlns:sketch="http://www.bohemiancoding.com/sketch/ns">
    <title>activity</title>
    <description>Created with Sketch (http://www.bohemiancoding.com/sketch)</description>
    <defs></defs>
    <g id="Points-of-interest" stroke="none" stroke-width="1" fill="none" fill-rule="evenodd" sketch:type="MSPage">
        <path d="M21.6060082,167.045117 C23.1503158,167.045117 24.4025075,165.780079 24.4025075,164.223688 C24.4025075,162.665417 23.1503158,161.3985 21.6060082,161.3985 C20.0654218,161.3985 18.8122999,162.665417 18.8122999,164.223688 C18.8122999,165.780079 20.0654218,167.045117 21.6060082,167.045117 Z M26.1217126,172.579891 L25.8333178,172.543237 C25.8016874,172.541357 25.7561024,172.539477 25.6984234,172.539477 L23.2275312,172.533838 L22.3763014,169.879703 C22.1381431,169.136282 21.5120473,168.568613 20.7975725,168.410718 L18.5518143,167.489665 C18.3043529,167.393801 18.0503794,167.343049 17.7852423,167.33741 L12.8248517,167.239665 C12.4415657,167.239665 12.0685131,167.33741 11.733603,167.52444 L11.6805756,167.487786 L7.85515814,171.004703 C6.92392203,171.856207 6.86624307,173.319553 7.71468196,174.265041 C8.15471661,174.750944 8.77336997,175.02632 9.41807189,175.02632 C9.98555843,175.02632 10.5269964,174.819553 10.9465643,174.437034 L13.717015,171.887222 L14.4352111,171.889102 L12.8015941,175.883462 L11.0898314,179.265041 L7.8644612,178.662598 C7.76026695,178.642861 7.67002729,178.633462 7.58071793,178.629703 L6.68576375,178.464289 C5.43450244,178.238726 4.26231713,179.097748 4.03718312,180.339289 C3.81204912,181.593049 4.63257884,182.798876 5.86709464,183.031959 L12.0061826,184.158838 C13.1355739,184.370305 14.2063559,183.696432 14.5654539,182.618425 L15.5264598,181.044177 L16.2483771,183.171056 L16.2483771,188.099628 C16.2483771,189.368425 17.2791559,190.3985 18.5453021,190.3985 C19.8067968,190.3985 20.8366453,189.368425 20.8440878,188.099628 L20.8440878,182.987786 C20.8440878,182.881583 20.8347847,182.789477 20.8273423,182.739665 C20.8161786,182.492485 20.7761754,182.277259 20.7101237,182.08459 L19.3835077,178.172936 L20.1249614,176.393801 C20.5305747,176.751883 21.0571278,176.95959 21.6106597,176.96147 L25.7356357,176.968989 C27.132955,176.968989 28,176.118425 28,174.756583 C28,173.541357 27.2873858,172.728387 26.1217126,172.579891 Z M26.1217126,172.579891" id="activity--yellow" fill="#FFC841" sketch:type="MSShapeGroup"></path>
        <path d="M21.6060082,126.646617 C23.1503158,126.646617 24.4025075,125.381579 24.4025075,123.825188 C24.4025075,122.266917 23.1503158,121 21.6060082,121 C20.0654218,121 18.8122999,122.266917 18.8122999,123.825188 C18.8122999,125.381579 20.0654218,126.646617 21.6060082,126.646617 Z M26.1217126,132.181391 L25.8333178,132.144737 C25.8016874,132.142857 25.7561024,132.140977 25.6984234,132.140977 L23.2275312,132.135338 L22.3763014,129.481203 C22.1381431,128.737782 21.5120473,128.170113 20.7975725,128.012218 L18.5518143,127.091165 C18.3043529,126.995301 18.0503794,126.944549 17.7852423,126.93891 L12.8248517,126.841165 C12.4415657,126.841165 12.0685131,126.93891 11.733603,127.12594 L11.6805756,127.089286 L7.85515814,130.606203 C6.92392203,131.457707 6.86624307,132.921053 7.71468196,133.866541 C8.15471661,134.352444 8.77336997,134.62782 9.41807189,134.62782 C9.98555843,134.62782 10.5269964,134.421053 10.9465643,134.038534 L13.717015,131.488722 L14.4352111,131.490602 L12.8015941,135.484962 L11.0898314,138.866541 L7.8644612,138.264098 C7.76026695,138.244361 7.67002729,138.234962 7.58071793,138.231203 L6.68576375,138.065789 C5.43450244,137.840226 4.26231713,138.699248 4.03718312,139.940789 C3.81204912,141.194549 4.63257884,142.400376 5.86709464,142.633459 L12.0061826,143.760338 C13.1355739,143.971805 14.2063559,143.297932 14.5654539,142.219925 L15.5264598,140.645677 L16.2483771,142.772556 L16.2483771,147.701128 C16.2483771,148.969925 17.2791559,150 18.5453021,150 C19.8067968,150 20.8366453,148.969925 20.8440878,147.701128 L20.8440878,142.589286 C20.8440878,142.483083 20.8347847,142.390977 20.8273423,142.341165 C20.8161786,142.093985 20.7761754,141.878759 20.7101237,141.68609 L19.3835077,137.774436 L20.1249614,135.995301 C20.5305747,136.353383 21.0571278,136.56109 21.6106597,136.56297 L25.7356357,136.570489 C27.132955,136.570489 28,135.719925 28,134.358083 C28,133.142857 27.2873858,132.329887 26.1217126,132.181391 Z M26.1217126,132.181391" id="activity--lp-blue" fill="#206FAC" sketch:type="MSShapeGroup"></path>
        <path d="M21.6060082,86.6466165 C23.1503158,86.6466165 24.4025075,85.3815789 24.4025075,83.825188 C24.4025075,82.2669173 23.1503158,81 21.6060082,81 C20.0654218,81 18.8122999,82.2669173 18.8122999,83.825188 C18.8122999,85.3815789 20.0654218,86.6466165 21.6060082,86.6466165 Z M26.1217126,92.181391 L25.8333178,92.1447368 C25.8016874,92.1428571 25.7561024,92.1409774 25.6984234,92.1409774 L23.2275312,92.1353383 L22.3763014,89.481203 C22.1381431,88.737782 21.5120473,88.1701128 20.7975725,88.012218 L18.5518143,87.0911654 C18.3043529,86.9953008 18.0503794,86.9445489 17.7852423,86.9389098 L12.8248517,86.8411654 C12.4415657,86.8411654 12.0685131,86.9389098 11.733603,87.1259398 L11.6805756,87.0892857 L7.85515814,90.606203 C6.92392203,91.4577068 6.86624307,92.9210526 7.71468196,93.8665414 C8.15471661,94.3524436 8.77336997,94.6278195 9.41807189,94.6278195 C9.98555843,94.6278195 10.5269964,94.4210526 10.9465643,94.0385338 L13.717015,91.4887218 L14.4352111,91.4906015 L12.8015941,95.4849624 L11.0898314,98.8665414 L7.8644612,98.2640977 C7.76026695,98.2443609 7.67002729,98.2349624 7.58071793,98.231203 L6.68576375,98.0657895 C5.43450244,97.8402256 4.26231713,98.6992481 4.03718312,99.9407895 C3.81204912,101.194549 4.63257884,102.400376 5.86709464,102.633459 L12.0061826,103.760338 C13.1355739,103.971805 14.2063559,103.297932 14.5654539,102.219925 L15.5264598,100.645677 L16.2483771,102.772556 L16.2483771,107.701128 C16.2483771,108.969925 17.2791559,110 18.5453021,110 C19.8067968,110 20.8366453,108.969925 20.8440878,107.701128 L20.8440878,102.589286 C20.8440878,102.483083 20.8347847,102.390977 20.8273423,102.341165 C20.8161786,102.093985 20.7761754,101.878759 20.7101237,101.68609 L19.3835077,97.7744361 L20.1249614,95.9953008 C20.5305747,96.3533835 21.0571278,96.5610902 21.6106597,96.5629699 L25.7356357,96.5704887 C27.132955,96.5704887 28,95.7199248 28,94.3580827 C28,93.1428571 27.2873858,92.3298872 26.1217126,92.181391 Z M26.1217126,92.181391" id="activity--white" fill="#FFFFFF" sketch:type="MSShapeGroup"></path>
        <path d="M21.6060082,46.6466165 C23.1503158,46.6466165 24.4025075,45.3815789 24.4025075,43.825188 C24.4025075,42.2669173 23.1503158,41 21.6060082,41 C20.0654218,41 18.8122999,42.2669173 18.8122999,43.825188 C18.8122999,45.3815789 20.0654218,46.6466165 21.6060082,46.6466165 Z M26.1217126,52.181391 L25.8333178,52.1447368 C25.8016874,52.1428571 25.7561024,52.1409774 25.6984234,52.1409774 L23.2275312,52.1353383 L22.3763014,49.481203 C22.1381431,48.737782 21.5120473,48.1701128 20.7975725,48.012218 L18.5518143,47.0911654 C18.3043529,46.9953008 18.0503794,46.9445489 17.7852423,46.9389098 L12.8248517,46.8411654 C12.4415657,46.8411654 12.0685131,46.9389098 11.733603,47.1259398 L11.6805756,47.0892857 L7.85515814,50.606203 C6.92392203,51.4577068 6.86624307,52.9210526 7.71468196,53.8665414 C8.15471661,54.3524436 8.77336997,54.6278195 9.41807189,54.6278195 C9.98555843,54.6278195 10.5269964,54.4210526 10.9465643,54.0385338 L13.717015,51.4887218 L14.4352111,51.4906015 L12.8015941,55.4849624 L11.0898314,58.8665414 L7.8644612,58.2640977 C7.76026695,58.2443609 7.67002729,58.2349624 7.58071793,58.231203 L6.68576375,58.0657895 C5.43450244,57.8402256 4.26231713,58.6992481 4.03718312,59.9407895 C3.81204912,61.1945489 4.63257884,62.4003759 5.86709464,62.6334586 L12.0061826,63.7603383 C13.1355739,63.9718045 14.2063559,63.2979323 14.5654539,62.2199248 L15.5264598,60.6456767 L16.2483771,62.7725564 L16.2483771,67.7011278 C16.2483771,68.9699248 17.2791559,70 18.5453021,70 C19.8067968,70 20.8366453,68.9699248 20.8440878,67.7011278 L20.8440878,62.5892857 C20.8440878,62.4830827 20.8347847,62.3909774 20.8273423,62.3411654 C20.8161786,62.093985 20.7761754,61.8787594 20.7101237,61.6860902 L19.3835077,57.7744361 L20.1249614,55.9953008 C20.5305747,56.3533835 21.0571278,56.5610902 21.6106597,56.5629699 L25.7356357,56.5704887 C27.132955,56.5704887 28,55.7199248 28,54.3580827 C28,53.1428571 27.2873858,52.3298872 26.1217126,52.181391 Z M26.1217126,52.181391" id="activity--body-grey" fill="#67747C" sketch:type="MSShapeGroup"></path>
        <path d="M21.6060082,7.04511654 C23.1503158,7.04511654 24.4025075,5.78007895 24.4025075,4.22368797 C24.4025075,2.66541729 23.1503158,1.3985 21.6060082,1.3985 C20.0654218,1.3985 18.8122999,2.66541729 18.8122999,4.22368797 C18.8122999,5.78007895 20.0654218,7.04511654 21.6060082,7.04511654 Z M26.1217126,12.579891 L25.8333178,12.5432368 C25.8016874,12.5413571 25.7561024,12.5394774 25.6984234,12.5394774 L23.2275312,12.5338383 L22.3763014,9.87970301 C22.1381431,9.13628195 21.5120473,8.56861278 20.7975725,8.41071805 L18.5518143,7.48966541 C18.3043529,7.39380075 18.0503794,7.34304887 17.7852423,7.33740977 L12.8248517,7.23966541 C12.4415657,7.23966541 12.0685131,7.33740977 11.733603,7.52443985 L11.6805756,7.48778571 L7.85515814,11.004703 C6.92392203,11.8562068 6.86624307,13.3195526 7.71468196,14.2650414 C8.15471661,14.7509436 8.77336997,15.0263195 9.41807189,15.0263195 C9.98555843,15.0263195 10.5269964,14.8195526 10.9465643,14.4370338 L13.717015,11.8872218 L14.4352111,11.8891015 L12.8015941,15.8834624 L11.0898314,19.2650414 L7.8644612,18.6625977 C7.76026695,18.6428609 7.67002729,18.6334624 7.58071793,18.629703 L6.68576375,18.4642895 C5.43450244,18.2387256 4.26231713,19.0977481 4.03718312,20.3392895 C3.81204912,21.5930489 4.63257884,22.7988759 5.86709464,23.0319586 L12.0061826,24.1588383 C13.1355739,24.3703045 14.2063559,23.6964323 14.5654539,22.6184248 L15.5264598,21.0441767 L16.2483771,23.1710564 L16.2483771,28.0996278 C16.2483771,29.3684248 17.2791559,30.3985 18.5453021,30.3985 C19.8067968,30.3985 20.8366453,29.3684248 20.8440878,28.0996278 L20.8440878,22.9877857 C20.8440878,22.8815827 20.8347847,22.7894774 20.8273423,22.7396654 C20.8161786,22.492485 20.7761754,22.2772594 20.7101237,22.0845902 L19.3835077,18.1729361 L20.1249614,16.3938008 C20.5305747,16.7518835 21.0571278,16.9595902 21.6106597,16.9614699 L25.7356357,16.9689887 C27.132955,16.9689887 28,16.1184248 28,14.7565827 C28,13.5413571 27.2873858,12.7283872 26.1217126,12.579891 Z M26.1217126,12.579891" id="activity--title-grey" fill="#3B444F" sketch:type="MSShapeGroup"></path>
    </g>
</svg>

<svg width="32" height="232" viewBox="0 0 32 232" xmlns="http://www.w3.org/2000/svg" xmlns:sketch="http://www.bohemiancoding.com/sketch/ns"><title>activity</title><g sketch:type="MSPage" fill="none"><path d="M21.606 167.045c1.544 0 2.796-1.265 2.796-2.821 0-1.558-1.252-2.825-2.796-2.825-1.541 0-2.794 1.267-2.794 2.825 0 1.556 1.253 2.821 2.794 2.821zm4.516 5.535l-.288-.037-.135-.004-2.471-.006-.851-2.654c-.238-.743-.864-1.311-1.579-1.469l-2.246-.921c-.247-.096-.501-.147-.767-.152l-4.96-.098c-.383 0-.756.098-1.091.285l-.053-.037-3.825 3.517c-.931.852-.989 2.315-.14 3.26.44.486 1.059.761 1.703.761.567 0 1.109-.207 1.528-.589l2.77-2.55.718.002-1.634 3.994-1.712 3.382-3.225-.602-.284-.033-.895-.165c-1.251-.226-2.423.633-2.649 1.875-.225 1.254.595 2.46 1.83 2.693l6.139 1.127c1.129.211 2.2-.462 2.559-1.54l.961-1.574.722 2.127v4.929c0 1.269 1.031 2.299 2.297 2.299 1.261 0 2.291-1.03 2.299-2.299v-5.112l-.017-.248c-.011-.247-.051-.462-.117-.655l-1.327-3.912.741-1.779c.406.358.932.566 1.486.568l4.125.008c1.397 0 2.264-.851 2.264-2.212 0-1.215-.713-2.028-1.878-2.177zm0 0" fill="#FFC841" sketch:type="MSShapeGroup"/><path d="M21.606 126.647c1.544 0 2.796-1.265 2.796-2.821 0-1.558-1.252-2.825-2.796-2.825-1.541 0-2.794 1.267-2.794 2.825 0 1.556 1.253 2.821 2.794 2.821zm4.516 5.535l-.288-.037-.135-.004-2.471-.006-.851-2.654c-.238-.743-.864-1.311-1.579-1.469l-2.246-.921c-.247-.096-.501-.147-.767-.152l-4.96-.098c-.383 0-.756.098-1.091.285l-.053-.037-3.825 3.517c-.931.852-.989 2.315-.14 3.26.44.486 1.059.761 1.703.761.567 0 1.109-.207 1.528-.589l2.77-2.55.718.002-1.634 3.994-1.712 3.382-3.225-.602-.284-.033-.895-.165c-1.251-.226-2.423.633-2.649 1.875-.225 1.254.595 2.46 1.83 2.693l6.139 1.127c1.129.211 2.2-.462 2.559-1.54l.961-1.574.722 2.127v4.929c0 1.269 1.031 2.299 2.297 2.299 1.261 0 2.291-1.03 2.299-2.299v-5.112l-.017-.248c-.011-.247-.051-.462-.117-.655l-1.327-3.912.741-1.779c.406.358.932.566 1.486.568l4.125.008c1.397 0 2.264-.851 2.264-2.212 0-1.215-.713-2.028-1.878-2.177zm0 0" fill="#206FAC" sketch:type="MSShapeGroup"/><path d="M21.606 86.647c1.544 0 2.796-1.265 2.796-2.821 0-1.558-1.252-2.825-2.796-2.825-1.541 0-2.794 1.267-2.794 2.825 0 1.556 1.253 2.821 2.794 2.821zm4.516 5.535l-.288-.037-.135-.004-2.471-.006-.851-2.654c-.238-.743-.864-1.311-1.579-1.469l-2.246-.921c-.247-.096-.501-.147-.767-.152l-4.96-.098c-.383 0-.756.098-1.091.285l-.053-.037-3.825 3.517c-.931.852-.989 2.315-.14 3.26.44.486 1.059.761 1.703.761.567 0 1.109-.207 1.528-.589l2.77-2.55.718.002-1.634 3.994-1.712 3.382-3.225-.602-.284-.033-.895-.165c-1.251-.226-2.423.633-2.649 1.875-.225 1.254.595 2.46 1.83 2.693l6.139 1.127c1.129.211 2.2-.462 2.559-1.54l.961-1.574.722 2.127v4.929c0 1.269 1.031 2.299 2.297 2.299 1.261 0 2.291-1.03 2.299-2.299v-5.112l-.017-.248c-.011-.247-.051-.462-.117-.655l-1.327-3.912.741-1.779c.406.358.932.566 1.486.568l4.125.008c1.397 0 2.264-.851 2.264-2.212 0-1.215-.713-2.028-1.878-2.177zm0 0" fill="#fff" sketch:type="MSShapeGroup"/><path d="M21.606 46.647c1.544 0 2.796-1.265 2.796-2.821 0-1.558-1.252-2.825-2.796-2.825-1.541 0-2.794 1.267-2.794 2.825 0 1.556 1.253 2.821 2.794 2.821zm4.516 5.535l-.288-.037-.135-.004-2.471-.006-.851-2.654c-.238-.743-.864-1.311-1.579-1.469l-2.246-.921c-.247-.096-.501-.147-.767-.152l-4.96-.098c-.383 0-.756.098-1.091.285l-.053-.037-3.825 3.517c-.931.852-.989 2.315-.14 3.26.44.486 1.059.761 1.703.761.567 0 1.109-.207 1.528-.589l2.77-2.55.718.002-1.634 3.994-1.712 3.382-3.225-.602-.284-.033-.895-.165c-1.251-.226-2.423.633-2.649 1.875-.225 1.254.595 2.46 1.83 2.693l6.139 1.127c1.129.211 2.2-.462 2.559-1.54l.961-1.574.722 2.127v4.929c0 1.269 1.031 2.299 2.297 2.299 1.261 0 2.291-1.03 2.299-2.299v-5.112l-.017-.248c-.011-.247-.051-.462-.117-.655l-1.327-3.912.741-1.779c.406.358.932.566 1.486.568l4.125.008c1.397 0 2.264-.851 2.264-2.212 0-1.215-.713-2.028-1.878-2.177zm0 0" fill="#67747C" sketch:type="MSShapeGroup"/><path d="M21.606 7.045c1.544 0 2.796-1.265 2.796-2.821 0-1.558-1.252-2.825-2.796-2.825-1.541 0-2.794 1.267-2.794 2.825 0 1.556 1.253 2.821 2.794 2.821zm4.516 5.535l-.288-.037-.135-.004-2.471-.006-.851-2.654c-.238-.743-.864-1.311-1.579-1.469l-2.246-.921c-.247-.096-.501-.147-.767-.152l-4.96-.098c-.383 0-.756.098-1.091.285l-.053-.037-3.825 3.517c-.931.852-.989 2.315-.14 3.26.44.486 1.059.761 1.703.761.567 0 1.109-.207 1.528-.589l2.77-2.55.718.002-1.634 3.994-1.712 3.382-3.225-.602-.284-.033-.895-.165c-1.251-.226-2.423.633-2.649 1.875-.225 1.254.595 2.46 1.83 2.693l6.139 1.127c1.129.211 2.2-.462 2.559-1.54l.961-1.574.722 2.127v4.929c0 1.269 1.031 2.299 2.297 2.299 1.261 0 2.291-1.03 2.299-2.299v-5.112l-.017-.248c-.011-.247-.051-.462-.117-.655l-1.327-3.912.741-1.779c.406.358.932.566 1.486.568l4.125.008c1.397 0 2.264-.851 2.264-2.212 0-1.215-.713-2.028-1.878-2.177zm0 0" fill="#3B444F" sketch:type="MSShapeGroup"/></g></svg>
